X: 22057
T: Knockdhu
R: reel
M: 4/4
K: Adorian
A,2 ED CA,A,G,|A,CEG c2 EF|G2 BG AG E2|DEGD EDB,G,|
A,2 ED CA,A,G,|A,CEG c2 EF|G2 BG AG E2|1 DEGG, B,A,A,G,:|2 DEGA BAGB||
|:A2 aA gAaA|e2 ed cAAB|G2 BG AGE2|[G,D]3 E GABG|
A2 aA gAaA|e2 ed cAAB|G2 BG AGE2|DEGD EDB,G,:|

